src/assets/duotone/ArrowLeft2.svg

<svg width="24" height="24" viewBox="0 0 24 24"  xmlns="http://www.w3.org/2000/svg">
<path opacity="0.4" d="M7.81 2H16.18C19.83 2 22 4.17 22 7.81V16.18C22 19.82 19.83 21.99 16.19 21.99H7.81C4.17 22 2 19.83 2 16.19V7.81C2 4.17 4.17 2 7.81 2Z" />
<path d="M5.47 11.4699L9.76 7.1799C10.05 6.8899 10.53 6.8899 10.82 7.1799C11.11 7.4699 11.11 7.9499 10.82 8.2399L7.81 11.2499H18C18.41 11.2499 18.75 11.5899 18.75 11.9999C18.75 12.4099 18.41 12.7499 18 12.7499H7.81L10.82 15.7599C11.11 16.0499 11.11 16.5299 10.82 16.8199C10.67 16.9699 10.48 17.0399 10.29 17.0399C10.1 17.0399 9.91 16.9699 9.76 16.8199L5.47 12.5299C5.33 12.3899 5.25 12.1999 5.25 11.9999C5.25 11.7999 5.33 11.6099 5.47 11.4699Z" />
</svg>

<?xml version="1.0" encoding="UTF-8"?>
<svg width="24" height="24" viewBox="0 0 24 24" xmlns="http://www.w3.org/2000/svg">
 <path d="M7.81 2H16.18C19.83 2 22 4.17 22 7.81V16.18C22 19.82 19.83 21.99 16.19 21.99H7.81C4.17 22 2 19.83 2 16.19V7.81C2 4.17 4.17 2 7.81 2Z" opacity=".4"/>
 <path d="m5.47 11.47 4.29-4.29c0.29-0.29 0.77-0.29 1.06 0s0.29 0.77 0 1.06l-3.01 3.01h10.19c0.41 0 0.75 0.34 0.75 0.75s-0.34 0.75-0.75 0.75h-10.19l3.01 3.01c0.29 0.29 0.29 0.77 0 1.06-0.15 0.15-0.34 0.22-0.53 0.22s-0.38-0.07-0.53-0.22l-4.29-4.29c-0.14-0.14-0.22-0.33-0.22-0.53s0.08-0.39 0.22-0.53z"/>
</svg>
